X:1
T:Musical Offering Sonata IV, Allegro (A = 415 Hz) 
T:BWV 1079
T:J. S. Bach
%%score { 1 | 2 } { 3 | 4 }
L:1/8
Q:1/4=132
M:6/8
K:D
V:1 treble nm="Harp"
V:2 treble 
V:3 treble nm="Harp"
V:4 bass 
V:1
"^Allegro" z3 z Bc | def gec | B2 ^A z2 f | f2 =f z2 e | e2 ^d =d3- | dc =c2 B^A- | A^GF B2 e | %7
 dgf edc | Bdc BA^G | F=f^f z2 d- | d/c/B/A/^G/F/ =F/^D/Ca- | af^d ^G/A/B^g- | g=f^f Ffe | %13
 e/4^d/4e/4d/4e/4d/4e/4d/4e/4d/4e/4d/4 e/4=d/4e/4d/4e/4d/4e/4d/4e/4d/4e/4d/4 | c3- c^d=f | %15
 f2 A ^G2 =f | f3 z af | ^dB A2 GF | E2 B g3- | g2 b ed'c' | d'3- d'd/c/B/^A/ | B3- BGE | %22
 CB^A B3- | Bcd e3- | e/d/e/f/g/e/ ^A/^G/A/B/c/A/ | B3- Bc/B/^A/^G/ | ^Af =A2 ^GF | Ee^d e3- | %28
 ef/e/d/c/ dBc | FdB GFE | DEF Eec | d=f ^f2 =f/^d/c/B/ | ABc B b2- | ba/^g/f/e/ d =g2- | %34
 gf/e/d/c/ B3- | BA/G/F/E/ D3- | DG/E<F G/F/4E/4F/4E/4F/4E/4D/ | D3- D2 z | z ed cB^A | Bba gfe | %40
 ^d/e/f/g/ a2 g z | z d=c BA^G | Aag =fed | c/d/e/=f/ g2 ^f z | z3 z z b- | b/a/g/f/e/d/ c/B/Af- | %46
 fdB E/F/Ge- | ecd Dd=c | %48
 c/4B/4c/4B/4c/4B/4c/4B/4c/4B/4c/4B/4 B/4^A/4B/4A/4B/4A/4B/4A/4B/4A/4B/4A/4 | A3- ABc | d2 F E2 c | %51
 d2 z2 z2 | z3 z AB | cde fdB | A2 ^G z z e | e2 ^d z z =d | d2 c ^B3- | B=B ^A2 =A^G- | GFE A2 d | %59
 cfe dcB | A2 z z2 A- | A/E/C/E/A/B/ c/A/E/A/c/d/ | ecA D/E/F/G/A/B/ | =c6- | cd/=c/B/A/ B3- | %65
 BA/G/F/E/ A3- | A=c/A/G/F/ G/B/A/G/F/E/ | =c2 B B^AB | B6- | Bc^d ef/e/d/e/ | f3- f/e/f/g/a/f/ | %71
 gec F/G/Af- | f^dB Ee=d | %73
 d/4c/4d/4c/4d/4c/4d/4c/4d/4c/4d/4c/4 d/4=c/4d/4c/4d/4c/4d/4c/4d/4c/4d/4c/4 | B3- Bc^d | %75
 e2 G F2 ^d | eBG E/F/G/A/B/c/ | d6- | de/d/c/B/ caA- | A/E/C/E/A/B/ c/A/E/A/c/d/ | ecA D2 z | %81
 g6- | gB/4^A/4B/4A/4B/4A/4B/4A/4 B/F/B/c/d | E4 A/B/=c | D2 z z/ c/^d/e/f/g/ | %85
 a/=c'/b/a/g/f/ g/e/B/^d/e/f/ | g/b/a/g/f/e/ f/d/B/c/d/e/ | f/a/g/f/e/d/ e3- | e/g/f/e/d/c/ dBc | %89
 def gec | B2 ^A z2 f | f2 =f z2 e | e2 ^d =d3- | dc =c2 B^A- | A^GF B2 e | dgf e3- | %96
 e/g/f/e/d/c/ d/e/d/c/B/A/ | ^G/F/G/^A/B/A/ B/d/c/B/A/G/ | F/E/F/^G/A/G/ A/=c/B/A/=G/F/ | %99
 E/^D/E/F/G/F/ G/A/G/F/E/=D/ | C2 z2 G/A/4G/4A/4G/4A/4G/4 | Fed cgf- | f=f ^g2 b^a | %103
 b^a/^g/f/e/ dec | B/^A/B/c/d/B/ c/B/c/d/e/c/ | d/g/f/e/d/c/ Bc^A | B2 z z2 c | de f2 e/d/c/B/ | %108
 ^A/B/c d2 c/B/A/^G/ | F4 EG | ^Ac e2 d/c/d/B/ | g^AB- B/c/B/4A/4B/4A/4B/4A/4B/ | B3- B2 z |] %113
V:2
 z6 | z6 | z6 | z6 | z6 | z6 | z6 | z6 | z4 F^G | ABc dB^G | F2 =F z2 c | c2 =c z2 B | %12
 B2 ^A =A2- A- | A^G =G2 F=F- | F^DC ^F2 B | Adc BA^G | F2 C A3- | A2 =c Fe^d | e3 z ge | %19
 cA G2 FE | F2 A f3- | fdB e3- | ef/e/d/c/ d/c/d/e/f/d/ | B3- Bc/B/^A/B/ | c3- c/B/c/d/e/c/ | %25
 dB^G C/D/Ec- | c^AF B,B=A | %27
 A/4^G/4A/4G/4A/4G/4A/4G/4A/4G/4A/4G/4 A/4=G/4A/4G/4A/4G/4A/4G/4A/4G/4A/4G/4 | F3- F^G^A | %29
 B2 D C2 ^A | Bc d2 c/B/A/G/ | F^GA G^g=f | f^g a2 g/f/e/d/ | c f2- fe/d/c/B/ | A3- AG/F/E/D/ | %35
 CE A2 FD | B,CD3/2 E/D/4C/4D/4C/4D/4C/4D/ | D3- Dfe | dcB ^A/B/c/d/e- | e^d z2 AG | FE^D Eed | %41
 =cBA ^G/A/B/c/d- | dc z2 g=f | edc dDE | FGA BGE | D2 C z2 A | A2 ^G z2 =G | G2 F =F3- | %48
 FE ^D2 =DC- | CB,A, D2 G | FBA GFE | Dd=c BAG | Ffe dcB | A^ga z2 f- | f/e/d/c/B/A/ ^G/F/Ec'- | %55
 c'af B/c/db- | b^ga Aa=g | %57
 g/4f/4g/4f/4g/4f/4g/4f/4g/4f/4g/4f/4 g/4=f/4g/4f/4g/4f/4g/4f/4g/4f/4g/4f/4 | e3- ef^g | %59
 a2 c B2 ^g | aec A/B/c/d/e/f/ | g6- | ga/g/f/e/ fAD- | D/A,/F,/A,/D/E/ F/D/A,/D/F/G/ | AFD G,2 g | %65
{f} e3- ed/=c/B/A/ | ^def B2- B- | BA G2 FE | E^DE FGA | B3 z2 A- | A/G/A/B/=c/A/ ^D/C/D/E/F/D/ | %71
 E4 F/E/^D/C/ | ^DB =D2 CB, | A,A^G A3- | AB/A/G/F/ GEF | B,GE =CB,A, | A,G, z z2 E- | %77
 E/B,/^G,/B,/E/F/ ^G/E/B,/E/G/A/ | B^GE A,/B,/C/D/E/F/ | G6- | GA/G/F/E/ F/f/e/d/c/B/ | %81
 ^A/F/C/F/A/B/ c/A/E/A/c/d/ | e/g/f/e/d/c/ d/B/F/^A/B/c/ | d/f/e/d/c/B/ c/A/E/^G/A/B/ | %84
 =c/e/d/c/B/A/ B3- | B6- | B6- | B3- B/d/c/B/^A/^G/ | ^ABc F/e/d/c/B/A/ | B3- B/a/g/f/e/d/ | %90
 c/g/f/e/d/c/ d/e/d/c/B/A/ | ^G/F/G/^A/B/A/ B/d/c/B/A/G/ | F/E/F/^G/A/G/ A/=c/B/A/=G/F/ | %93
 E/^D/E/F/G/F/ G/A/G/F/E/=D/ | C2 z2 Bc | def gec | B2 ^A z2 f | f2 =f z2 e | e2 ^d =d3- | %99
 dc =c2 B^A- | A^GF B2 e | dgf edc | B/^A/B/c/d/B/ c/B/c/d/e/c/ | d/g/f/e/d/c/ B^Af- | %104
 f^e ^g2 b^a | b^a/^g/f/e/ dec | Bc d2 c/B/^A/^G/ | F/E/D/C/B,/A,/ G, g2- | gf/e/d/c/ Bc/d/e- | %109
 ed/c/B/A/ G3- | GF/E/D/C/ B,3- | B,E/C/D- D/E/D/4C/4D/4C/4D/4C/4B,/ | B,3- B,2 z |] %113
V:3
 z2 z [FBd]3- | [FBd]3 [GBe]2 [GBc] | [Fcf]3 [FBf]2 [Bdf] | [^Gcf]2 [Gc=f] [Fce]2 [F^Ae] | %4
 [FBe]2 [FB^d] [EB=d]2 [E^Gd] | [EAd][EAc][DF=c] [DGc][DGB][CE^A] | [CE^A]2 [CFA] [B,FB]2 [EFA] | %7
 [DFB]3 [CGB]2 [CF^A] | [DFB]3- [DFB]2 [C^GB] | [CFA]2 [CFc] [DFB]2 [DF^G] | %10
 [CF^G]2 [C=FG] [FGc]2 [FAc] | [FAc]2 [^DF=c] [C^GB]3- | [CGB]2 [CF^A] [DF=A][FAd][EAe] | %13
 [FA^d][^Gd][=GBd] [GB=d][FBd][=FBd] | [=F^Gc]3 [^FAc]2 [=FBc] | [FAc]3 [F^Gc]2 [=FGc] | %16
 [FAc]3- [FAc]2 [FAc] | [^DAB]3 z2 [DAB] | [EGB]3- [EGB]2 [EGB] | [CGA]3 z z [CGA] | %20
 [DFA]3- [DFA]2 [DF^A] | [DFB]2 z [CGB]2 z | [CE^A]2 z [B,DB]3- | [B,DB]3 [EB][EGc][EF^A] | %24
 [EFc]3 z2 [EF^A] | [DFB]2 [DF^G] z z [C=GB] | [CF^A]2 [B,F=A] [B,FA]3 | %27
 [B,E^G]2 z [E=Ge][EGd][EGc] | [EFc][EFB][EF^A] [DFB]2 [CFA] | [DFB]2 [DGB] [CGB]2 [CF^A] | %30
 [DFB]3 [DEB]2 [CEA] | [DFA]3 [DF^G]2 [C=FG] | [CFA]2 [CFAc] [FAB]2 [E^GB] | %33
 [C^GB] [CFA]2 [DFB][E=GB][EGc] | [EGA][CFc][FAd] [FAB][DGd][GBe] | [GBc][EAe][Acf] [Acd]2 [Adf] | %36
 [GBd][Gce] [FBd]2 [EAc][EAc] | [FAd]3- [FAd]2 z | z2 [D^GB] [CF^A]2 [EFA] | %39
 [EFB][^DFB] z z2 [EGc] | [^DFB]2 [DFA] [B,EA][B,EG] z | z2 [=CFA] [B,E^G]2 [DEG] | %42
 [DEA][CEA] z z2 [=FBd] | [EAc]2 [GAc] [GAd] [FAd]2 | [FAd]2 [DAd] [DGB]2 [EGB] | %45
 [Bd]2 [EAc] [EAc]2 [Fd] | [FAd]2 [D^GB] [E=GA]3- | [EGA]2 [DFA] [DF^G]2 [DFA] | %48
 [DFB][EB][^DAB] [DG^A][=DGA][CGA] | [CEA]3 [DFA]2 [EGc] | [FAd]3 [EBd]2 [EAc] | %51
 [DFd]2 [FAd] [EBd]2 [EAc] | [FAd]2 [GAc] [FAd]2 [EBd] | [EAc][E^Gd][EAe] [FAd]2 [DFB] | %54
 [FAB]2 [E^GB] [EGe]2 [Ece] | [FAe]2 [FA^d] [EB=d]3- | [EBd][EBd][EAc] [^DA=c]2 [EAc] | %57
 [FA=c][FB][F^Ae] [=FAd][F=Ad][F^Gd] | [E^Ge][EAe][EBe] [EAe][FAd][EGd] | %59
 [Ac][FBd][EAc] [FAB]2 [E^GB] | [CEA]3 z z2 | [EGAc]6- | [EGAc]2 [GAce] [FAd]3 | [DFA=c]6- | %64
 [DFAc]3 [DGB]3 | [EGB]3 [EFA]3 | [^DFB]2 [B,FB] [B,EG]2 [B,EB] | %67
 [=CEB][CEA][B,^DG] [B,EG]2 [A,EF] | [B,EF][B,^DF] z z [GBe][AB^d] | [GBe]2 [FA^d] [EGe]2 [^DA=c] | %70
 [FA=c]3 z2 [^DAB] | [EGB]2 [EGc] z2 [EFc] | [^DFB]2 [=DEB] [DEB][CEB][B,DB] | [CEA]3 [=C=FA]3 | %74
 [B,FA]3 [B,EG]2 [B,^DF] | [B,EG]2 [=CEG] [CEF]2 [B,^DF] | [B,EG]3 z z2 | [D^GB]6- | %78
 [DGB]2 [DEB] [CEA]2 z | [EGc]6- | [EGc]2 [EGAe] [FAd] [EGBe]2 | [EG^Ae]2- [EGAe] [EGAc]3- | %82
 [EGAc][F^Ac][EAc] [DFB]2 [FBd] | [EBd]3 [EAc]2 [EA=c] | [DA=c]3 [DGB][^DAB][EGB] | %85
 [FAB]3 [EGB]2 z | [GBe]3 [FBd]2 z | z [GBe][FBd] [EBe]2 [GBe] | [F^A]2 [FAc] [FBd]3- | %89
 [FBd]3 [GBe]2 [GBc] | [FBc]2 [F^Ac] [DB]2 [FBd] | [F^Gc]2 [=FGB] [E=GB]2 [E^F^A] | %92
 [EFB]2 [^DFB] [=DFB]3 | [DEB][CEB][=CFA] [CEG][B,EG][^A,EG] | [^A,CF]2 [CF^A] [B,FB]2 [EFc] | %95
 [DFB][EGB][DFB] [B,EGB]2 [CEGB] | [CEFB]2 [CEF^A] [B,DFB] [FBd]2 | %97
 [F^Gc]2 [=FGB] [E=GB][EGBc][E^Ac] | [EFB]2 [^DFB] [=DFB]3 | [DEB][CEB][=CFA] [CEG][B,EG][^A,EG] | %100
 [^A,CF]2 [CF^A] [B,FB]2 [EGc] | [DFB]2 [FBd] [F^Ace][FBd][Fcf] | %102
 [FBd]2 [=F^GBd] [GBc][FGBc][^F^Ac] | [FBd]2 [DFB] [DFB]2 [CF^A] | %104
 [DFB]2 [=F^GB] [CFGB]2 [CE^F^A] | [B,DFB]3 [B,DFB]2 [CEF^A] | [B,DB][GBd][EBd] [EAd][EFc][EF^A] | %107
 [DFB]2 [FAB] [FGB][EGB][CGB] | [CG^A][DFB][FBd] [EBd][E^Gc][E=Ac] | %109
 [EFc][DFB][FB] [FGd][EBe][GBe] | [G^Ae][Fcf][FAc] [FBd]3 | %111
 [GBc][C^Ac][FAc] [FBd]/[EGc]/[DB][CFA] | [DFB]3- [DFB]2 z |] %113
V:4
 B,F,D, B,,3- | B,,C,D, E,3- | E,F,E, D,C,B,, | C,^G,B, ^A,G,F, | B,,F,A, ^G,F,E, | %5
 A,,2 D, G,,2 G, | C,2 E, D,2 C, | B,,2 D, E,2 F, | B,,2 D, E,2 =F,, | %9
 F,,^G,,A,, C,/4B,,/4C,/4B,,/4C,/4B,,/4C,/4B,,/4C,/4B,,/4C,/4B,,/4 | %10
 C,2 C,, D,/4C,/4D,/4C,/4D,/4C,/4D,/4C,/4D,/4C,/4D,/4C,/4 | %11
 E,/4^D,/4E,/4D,/4E,/4D,/4E,/4D,/4E,/4D,/4E,/4D,/4 F,/4=F,/4^F,/4=F,/4^F,/4=F,/4^F,/4=F,/4^F,/4=F,/4^F,/4=F,/4 | %12
 F,2 E, D,2 C, | B,,2 B,,, B,,3- | B,,2 B, A,2 ^G, | F,2 A, C2 C, | F,C,A,, F,,2 A,, | %17
 B,,2- B,, z2 B,, | E,B,,G,, E,,2 G,, | A,,3 z z A,, | D,A,,F,, D,,2 F,, | G,,2 z C,,2 z | %22
 F,,2 z B,,,B,,C, | D,E,F, G,E,C, | B,,2 ^A,, z2 F, | F,2 =F, z z E, | E,2 ^D, =D,3- | %27
 D,C, =C,2 B,,^A,,- | A,,^G,,F,, B,,2 E, | D,2 G, E,2 F, | B,,2 A,, G,,2 A,, | D,2 C, B,,2 C, | %32
 F,2 E, D,2 E, | A,,/^G,,/F,,/E,,/D,,/C,,/ B,,/A,,/=G,,/F,,/E,,/D,,/ | %34
 C,/B,,/A,,/G,,/F,,/E,,/ D,/C,/B,,/A,,/G,,/F,,/ | E,/D,/C,/B,,/A,,/G,,/ F,/E,/D,/C,/B,,/A,,/ | %36
 G,E,B, G,A,A,, | D,A,,/G,,/F,,/E,,/ D,,2 z | z2 =F, ^F,2 F,, | B,,2 z z2 ^A, | B,2 B,, E,2 z | %41
 z2 ^D, E,2 E,, | A,,2 z z2 ^G, | A,2 A,, D,3- | D,E,F, G,3- | G,E,A,- A,/G,/F,/E,/D,/C,/ | %46
 C,/4B,,/4C,/4B,,/4C,/4B,,/4C,/4B,,/4C,/4B,,/4C,/4B,,/4 D,/4C,/4D,/4C,/4D,/4C,/4D,/4C,/4D,/4C,/4D,/4C,/4 | %47
 D,2 =C, B,,2 A,, | ^G,,^G,F, =G,3- | G,G,G,, F,,2 E,, | D,,2 F,, G,,2 A,, | B,,2 F,, G,,2 A,, | %52
 D,,2 E,, F,,2 ^G,, | A,,B,,C, D,3- | D,B,,E,- E,/D,/C,/B,,/A,,/^G,,/ | %55
 G,,/4F,,/4G,,/4F,,/4G,,/4F,,/4G,,/4F,,/4G,,/4F,,/4G,,/4F,,/4 A,,/4^G,,/4A,,/4G,,/4A,,/4G,,/4A,,/4G,,/4A,,/4G,,/4A,,/4G,,/4 | %56
 A,,2 G,, F,,2 E,, | ^D,,^D,C, =D,3- | D,A,,^G,, C,D,E, | F,^G,A, D,2 E, | A,,3 z z2 | %61
 z A,,C, E,C,E, | A,A,,C, D,3 | z D,F, A,F,A, | DD,F, G,A,B, | C,^D,E, F,G,A, | B,,C,^D, E,F,G, | %67
 A,,2 B,, =C,3 | B,,2 z z E,,F,, | G,,A,,B,, =C,A,,F,, | E,,2 ^D,, z2 B,, | B,,2 ^A,, z2 =A,, | %72
 A,,2 ^G,, =G,,3- | G,,F,, =F,,2 E,,^D,,- | D,,C,,B,,, E,,2 A,, | G,,2 =C, A,,2 B,, | E,,3 z z2 | %77
 z E,,^G,, B,,G,,B,, | E,E,,^G,, A,,2 z | z A,,C, E,C,E, | A,A,,C, D,G,/F,/E,/D,/ | %81
 C,E,C, ^A,,C,A,, | F,,2 F, B,,D,B,, | G,,E,,G,, A,,C,A,, | F,,D,,F,, G,,F,,E,, | %85
 ^D,,B,,,D,, E,,2 z | z E,G, B,2 z | z E,B,, C,D,E, | F,^G,^A, B,2- B,- | %89
 B,/C/B,/A,/G,/F,/ F,/4E,/4F,/4E,/4F,/4E,/4F,/4E,/4F,/4E,/4F,/4E,/4 | F,F,,F, B,,A,^G, | %91
 CC,^G, C,=G,F, | B,B,,F, B,,C,D, | G,,2 ^D,, E,,2 C,, | %94
 F,,/G,/F,/E,/D,/C,/ D,/E,/D,/C,/B,,/^A,,/ | B,,/^A,,/B,,/C,/D,/C,/ D,/B,,/C,/D,/E,/C,/ | %96
 F,2 F,, B,,A,^G, | C,C^G, C,=G,F, | B,,B,F, B,,C,D, | G,,2 ^D,, E,,2 C, | %100
 F,/G,/F,/E,/D,/C,/ D,/E,/D,/C,/B,,/^A,,/ | B,,3 B,,B,A, | ^G,DB, =F,C,^F, | B,,>C,D,/E,/ F,2 F,, | %104
 ^G,,D,B,, ^E,,C,,F,, | B,,,>C,,D,,/E,,/ F,,E,,F,, | G,,2 ^G,, A,,_B,,F,, | B,,2 ^D,, E,,2 =F,, | %108
 F,,/E,/D,/C,/B,,/A,,/ ^G,,/F,/E,/D,/C,/B,,/ | ^A,,/G,/F,/E,/D,/C,/ B,,/A,/G,/F,/E,/D,/ | %110
 C,/B,/^A,/^G,/F,/E,/ D,/C/B,/=A,/=G,/F,/ | E,/G,/F,/E,/D,/C,/ B,,/E,/F,F,, | B,,,3- B,,,2 z |] %113

